icons/Gruvbox-Material-Dark/24x24/apps/discord.svg

<svg width="24" height="24" version="1.1" xmlns="http://www.w3.org/2000/svg" xmlns:xlink="http://www.w3.org/1999/xlink">
 <circle cx="12" cy="12.5" r="10" style="opacity:.2"/>
 <circle cx="12" cy="12" r="10" style="fill:#6ab1e6"/>
 <path d="M 12,2 A 10,10 0 0 0 2,12 10,10 0 0 0 2.01075,12.291 10,10 0 0 1 12,2.5 10,10 0 0 1 21.9895,12.209 10,10 0 0 0 22,12 10,10 0 0 0 12,2 Z" style="fill:#ffffff;opacity:.1"/>
 <path d="m10.28125 7.5003123c-0.8570547 0.1452522-1.6780607 0.4003013-2.4433594 0.7460938-0.00663 0.00284-0.011859 0.00758-0.015625 0.013672-1.5556696 2.2870039-1.9824986 4.5175729-1.7734375 6.7207049 9.692e-4 0.01077 0.00711 0.02079 0.015625 0.02734 1.0263861 0.741712 2.020326 1.191773 2.9960938 1.490235 0.015618 0.0047 0.033032-1e-3 0.042969-0.01367 0.230818-0.31017 0.4368679-0.501772 0.6132813-0.845703 0.010412-0.02015-1.986e-4 -0.04476-0.021484-0.05273-0.3263593-0.121815-0.6366173-0.368438-0.9355469-0.53711-0.023644-0.01359-0.025633-0.04852-0.00391-0.06445 0.062907-0.04638 0.1254806-0.09385 0.1855468-0.142578 0.010869-0.0089 0.026288-0.01146 0.039063-0.0059 1.9638399 0.882293 4.0905829 0.882293 6.0312499 0 0.01277-0.0061 0.02771-5e-3 0.03906 0.0039 0.06008 0.04872 0.122168 0.09815 0.185547 0.144531 0.02175 0.01593 0.01973 0.05087-0.0039 0.06445-0.29893 0.171949-0.608712 0.415753-0.935547 0.53711-0.02128 8e-3 -0.02994 0.03259-0.01953 0.05273 0.1802 0.343448 0.384768 0.535518 0.611328 0.845703 0.0095 0.01312 0.02735 0.01836 0.04297 0.01367 0.980501-0.298462 1.973613-0.748523 3-1.490235 9e-3 -0.0065 0.01664-0.01657 0.01758-0.02734 0.250203-2.547063-0.420277-4.759338-1.775391-6.7207051-0.0033-0.00655-9e-3 -0.010864-0.01563-0.013672-0.76482-0.3453003-1.583879-0.6003758-2.441406-0.7460938-0.01562-0.00284-0.03297 0.00356-0.04102 0.017578-0.105479 0.1846067-0.220916 0.3360957-0.302734 0.5253907-0.922326-0.1358757-1.840726-0.1358757-2.744141 0-0.08183-0.1935021-0.202641-0.340784-0.308594-0.5253907-8e-3 -0.013586-0.02345-0.019923-0.03906-0.017578zm-0.28125 4.0000017c0.561249 0 1.008774 0.452737 1 1 0 0.551205-0.443139 1-1 1-0.5481178 0-1-0.448795-1-1 0-0.551204 0.4431236-1 1-1zm4 0c0.561265 0 1.008758 0.452737 1 1 1e-6 0.551205-0.438735 1-1 1-0.548102 0-1-0.448795-1-1 0-0.551204 0.443124-1 1-1z" style="opacity:.2"/>
 <path d="m10.28125 7c-0.8570547 0.1452522-1.6780607 0.4003013-2.4433594 0.7460938-0.00663 0.0028399-0.011859 0.0075758-0.015625 0.0136718-1.5556696 2.2870024-1.9824986 4.5175714-1.7734375 6.7207034 9.692e-4 0.01077 0.007112 0.020793 0.015625 0.027343 1.0263861 0.741712 2.020326 1.191773 2.9960938 1.490235 0.015618 0.0047 0.0330317-0.001032 0.0429687-0.013672 0.230818-0.31017 0.4368679-0.501772 0.6132813-0.845703 0.010412-0.02015-1.986e-4 -0.044764-0.0214844-0.052734-0.3263593-0.121815-0.6366173-0.368438-0.9355469-0.53711-0.023644-0.01359-0.0256332-0.048523-0.0039062-0.064453 0.062907-0.04638 0.1254806-0.09385 0.1855468-0.142578 0.010869-0.0089 0.0262875-0.011459 0.0390626-0.005859 1.9638402 0.882293 4.0905832 0.882293 6.0312502 0 0.01277-0.0061 0.027712-0.004994 0.039062 0.003906 0.06008 0.04872 0.122168 0.098146 0.185547 0.144531 0.02175 0.01593 0.019734 0.050873-0.003906 0.064453-0.29893 0.171949-0.608712 0.415753-0.935547 0.53711-0.02128 0.007999-0.029941 0.032594-0.019531 0.052734 0.1802 0.343448 0.384768 0.535518 0.611328 0.845703 0.0095 0.01312 0.027349 0.018362 0.042969 0.013672 0.980501-0.298462 1.973613-0.748523 3-1.490235 9e-3 -0.0065 0.016638-0.016573 0.017578-0.027343 0.250203-2.547063-0.420277-4.7593373-1.775391-6.7207034-0.0033-0.00655-0.009005-0.0108639-0.015625-0.0136718-0.76482-0.3453003-1.583879-0.6003758-2.441406-0.7460938-0.01562-0.00284-0.032966 0.0035611-0.041016 0.0175781-0.105479 0.1846067-0.220916 0.3360957-0.302734 0.5253907-0.922326-0.1358757-1.840726-0.1358757-2.744141 0-0.08183-0.1935021-0.202641-0.340784-0.308594-0.5253907-0.007999-0.013586-0.023452-0.0199231-0.039062-0.0175781zm-0.28125 4c0.561249 0 1.008774 0.452737 1 1 0 0.551205-0.443139 1-1 1-0.5481178 0-1-0.448795-1-1 0-0.551204 0.4431236-1 1-1zm4 0c0.561265 0 1.008758 0.452737 1 1 1e-6 0.551205-0.438735 1-1 1-0.548102 0-1-0.448795-1-1 0-0.551204 0.443124-1 1-1z" style="fill:#ffffff"/>
</svg>

<svg xmlns="http://www.w3.org/2000/svg" width="24" height="24" version="1.1">
 <circle style="opacity:0.2" cx="12" cy="12.5" r="10"/>
 <circle style="fill:#5865f2" cx="12" cy="12" r="10"/>
 <path style="opacity:0.1;fill:#ffffff" d="M 12,2 A 10,10 0 0 0 2,12 10,10 0 0 0 2.01075,12.291 10,10 0 0 1 12,2.5 10,10 0 0 1 21.9895,12.209 10,10 0 0 0 22,12 10,10 0 0 0 12,2 Z"/>
 <path style="opacity:0.2" d="M 10.28125,7.5003123 C 9.4241953,7.6455645 8.6031893,7.9006136 7.8378906,8.2464061 c -0.00663,0.00284 -0.011859,0.00758 -0.015625,0.013672 C 6.266596,10.547082 5.839767,12.777651 6.0488281,14.980783 c 9.692e-4,0.01077 0.00711,0.02079 0.015625,0.02734 1.0263861,0.741712 2.020326,1.191773 2.9960938,1.490235 0.015618,0.0047 0.033032,-0.001 0.042969,-0.01367 0.230818,-0.31017 0.4368679,-0.501772 0.6132813,-0.845703 0.010412,-0.02015 -1.986e-4,-0.04476 -0.021484,-0.05273 -0.3263593,-0.121815 -0.6366173,-0.368438 -0.9355469,-0.53711 -0.023644,-0.01359 -0.025633,-0.04852 -0.00391,-0.06445 0.062907,-0.04638 0.1254806,-0.09385 0.1855468,-0.142578 0.010869,-0.0089 0.026288,-0.01146 0.039063,-0.0059 1.9638399,0.882293 4.0905829,0.882293 6.0312499,0 0.01277,-0.0061 0.02771,-0.005 0.03906,0.0039 0.06008,0.04872 0.122168,0.09815 0.185547,0.144531 0.02175,0.01593 0.01973,0.05087 -0.0039,0.06445 -0.29893,0.171949 -0.608712,0.415753 -0.935547,0.53711 -0.02128,0.008 -0.02994,0.03259 -0.01953,0.05273 0.1802,0.343448 0.384768,0.535518 0.611328,0.845703 0.0095,0.01312 0.02735,0.01836 0.04297,0.01367 0.980501,-0.298462 1.973613,-0.748523 3,-1.490235 0.009,-0.0065 0.01664,-0.01657 0.01758,-0.02734 0.250203,-2.547063 -0.420277,-4.759338 -1.775391,-6.7207051 -0.0033,-0.00655 -0.009,-0.010864 -0.01563,-0.013672 -0.76482,-0.3453003 -1.583879,-0.6003758 -2.441406,-0.7460938 -0.01562,-0.00284 -0.03297,0.00356 -0.04102,0.017578 -0.105479,0.1846067 -0.220916,0.3360957 -0.302734,0.5253907 -0.922326,-0.1358757 -1.840726,-0.1358757 -2.744141,0 -0.08183,-0.1935021 -0.202641,-0.340784 -0.308594,-0.5253907 -0.008,-0.013586 -0.02345,-0.019923 -0.03906,-0.017578 z M 10,11.500314 c 0.561249,0 1.008774,0.452737 1,1 0,0.551205 -0.443139,1 -1,1 -0.5481178,0 -1,-0.448795 -1,-1 0,-0.551204 0.4431236,-1 1,-1 z m 4,0 c 0.561265,0 1.008758,0.452737 1,1 10e-7,0.551205 -0.438735,1 -1,1 -0.548102,0 -1,-0.448795 -1,-1 0,-0.551204 0.443124,-1 1,-1 z"/>
 <path style="fill:#ffffff" d="M 10.28125 7 C 9.4241953 7.1452522 8.6031893 7.4003013 7.8378906 7.7460938 C 7.8312606 7.7489337 7.8260316 7.7536696 7.8222656 7.7597656 C 6.266596 10.046768 5.839767 12.277337 6.0488281 14.480469 C 6.0497973 14.491239 6.0559401 14.501262 6.0644531 14.507812 C 7.0908392 15.249524 8.0847791 15.699585 9.0605469 15.998047 C 9.0761649 16.002747 9.0935786 15.997015 9.1035156 15.984375 C 9.3343336 15.674205 9.5403835 15.482603 9.7167969 15.138672 C 9.7272089 15.118522 9.7165983 15.093908 9.6953125 15.085938 C 9.3689532 14.964123 9.0586952 14.7175 8.7597656 14.548828 C 8.7361216 14.535238 8.7341324 14.500305 8.7558594 14.484375 C 8.8187664 14.437995 8.88134 14.390525 8.9414062 14.341797 C 8.9522752 14.332897 8.9676937 14.330338 8.9804688 14.335938 C 10.944309 15.218231 13.071052 15.218231 15.011719 14.335938 C 15.024489 14.329838 15.039431 14.330944 15.050781 14.339844 C 15.110861 14.388564 15.172949 14.43799 15.236328 14.484375 C 15.258078 14.500305 15.256062 14.535248 15.232422 14.548828 C 14.933492 14.720777 14.62371 14.964581 14.296875 15.085938 C 14.275595 15.093937 14.266934 15.118532 14.277344 15.138672 C 14.457544 15.48212 14.662112 15.67419 14.888672 15.984375 C 14.898172 15.997495 14.916021 16.002737 14.931641 15.998047 C 15.912142 15.699585 16.905254 15.249524 17.931641 14.507812 C 17.940641 14.501312 17.948279 14.491239 17.949219 14.480469 C 18.199422 11.933406 17.528942 9.7211317 16.173828 7.7597656 C 16.170528 7.7532156 16.164823 7.7489017 16.158203 7.7460938 C 15.393383 7.4007935 14.574324 7.145718 13.716797 7 C 13.701177 6.99716 13.683831 7.0035611 13.675781 7.0175781 C 13.570302 7.2021848 13.454865 7.3536738 13.373047 7.5429688 C 12.450721 7.4070931 11.532321 7.4070931 10.628906 7.5429688 C 10.547076 7.3494667 10.426265 7.2021848 10.320312 7.0175781 C 10.312313 7.0039921 10.29686 6.997655 10.28125 7 z M 10 11 C 10.561249 11 11.008774 11.452737 11 12 C 11 12.551205 10.556861 13 10 13 C 9.4518822 13 9 12.551205 9 12 C 9 11.448796 9.4431236 11 10 11 z M 14 11 C 14.561265 11 15.008758 11.452737 15 12 C 15.000001 12.551205 14.561265 13 14 13 C 13.451898 13 13 12.551205 13 12 C 13 11.448796 13.443124 11 14 11 z"/>
</svg>
